icon-themes/sifr_svg/cmd/sc_sharedocument.svg

<svg viewBox="0 0 16 16" xmlns="http://www.w3.org/2000/svg"><path d="m2 1v14h3v-2h-1v-10h5v3h3 2v-1l-4-4zm11.5 6a1.5 1.5 0 0 0 -1.5 1.5 1.5 1.5 0 0 0 1.5 1.5 1.5 1.5 0 0 0 1.5-1.5 1.5 1.5 0 0 0 -1.5-1.5zm-6 3a1.5 1.5 0 0 0 -1.5 1.5 1.5 1.5 0 0 0 1.5 1.5 1.5 1.5 0 0 0 1.5-1.5 1.5 1.5 0 0 0 -1.5-1.5zm6 3a1.5 1.5 0 0 0 -1.5 1.5 1.5 1.5 0 0 0 1.5 1.5 1.5 1.5 0 0 0 1.5-1.5 1.5 1.5 0 0 0 -1.5-1.5z" fill="#555753"/></svg>

<svg xmlns="http://www.w3.org/2000/svg" viewBox="0 0 16 16">
  <path
     style="fill:#555753"
     d="M 2 1 L 2 15 L 5 15 L 5 13 L 4 13 L 4 3 L 9 3 L 9 6 L 12 6 L 14 6 L 14 5 L 10 1 L 2 1 z M 13.5 7 A 1.5 1.5 0 0 0 12 8.5 A 1.5 1.5 0 0 0 13.5 10 A 1.5 1.5 0 0 0 15 8.5 A 1.5 1.5 0 0 0 13.5 7 z M 7.5 10 A 1.5 1.5 0 0 0 6 11.5 A 1.5 1.5 0 0 0 7.5 13 A 1.5 1.5 0 0 0 9 11.5 A 1.5 1.5 0 0 0 7.5 10 z M 13.5 13 A 1.5 1.5 0 0 0 12 14.5 A 1.5 1.5 0 0 0 13.5 16 A 1.5 1.5 0 0 0 15 14.5 A 1.5 1.5 0 0 0 13.5 13 z "
     />
</svg>
